icons/circle/48/cs-desktop.svg

<svg xmlns="http://www.w3.org/2000/svg" viewBox="0 0 48 48">
 <defs>
  <linearGradient id="linearGradient3129" gradientUnits="userSpaceOnUse" gradientTransform="matrix(0,-1,1,0,-1.5e-6,47.999998)" x1="1" x2="47">
   <stop style="stop-color:#579ccd;stop-opacity:1"/>
   <stop offset="1" style="stop-color:#67a6d2;stop-opacity:1"/>
  </linearGradient>
 </defs>
 <g>
  <path d="m 36.31 5 c 5.859 4.062 9.688 10.831 9.688 18.5 c 0 12.426 -10.07 22.5 -22.5 22.5 c -7.669 0 -14.438 -3.828 -18.5 -9.688 c 1.037 1.822 2.306 3.499 3.781 4.969 c 4.085 3.712 9.514 5.969 15.469 5.969 c 12.703 0 23 -10.298 23 -23 c 0 -5.954 -2.256 -11.384 -5.969 -15.469 c -1.469 -1.475 -3.147 -2.744 -4.969 -3.781 z m 4.969 3.781 c 3.854 4.113 6.219 9.637 6.219 15.719 c 0 12.703 -10.297 23 -23 23 c -6.081 0 -11.606 -2.364 -15.719 -6.219 c 4.16 4.144 9.883 6.719 16.219 6.719 c 12.703 0 23 -10.298 23 -23 c 0 -6.335 -2.575 -12.06 -6.719 -16.219 z" style="opacity:0.05"/>
  <path d="m 41.28 8.781 c 3.712 4.085 5.969 9.514 5.969 15.469 c 0 12.703 -10.297 23 -23 23 c -5.954 0 -11.384 -2.256 -15.469 -5.969 c 4.113 3.854 9.637 6.219 15.719 6.219 c 12.703 0 23 -10.298 23 -23 c 0 -6.081 -2.364 -11.606 -6.219 -15.719 z" style="opacity:0.1"/>
  <path d="m 31.25 2.375 c 8.615 3.154 14.75 11.417 14.75 21.13 c 0 12.426 -10.07 22.5 -22.5 22.5 c -9.708 0 -17.971 -6.135 -21.12 -14.75 a 23 23 0 0 0 44.875 -7 a 23 23 0 0 0 -16 -21.875 z" style="opacity:0.2"/>
 </g>
 <path d="m 21.344 1.156 c -0.666 0.077 -1.321 0.18 -1.969 0.313 c 0.649 -0.133 1.301 -0.235 1.969 -0.313 z m 5.313 0 c 0.668 0.077 1.32 0.179 1.969 0.313 c -0.648 -0.133 -1.303 -0.236 -1.969 -0.313 z m -8.5 0.594 c -0.38 0.1 -0.753 0.225 -1.125 0.344 c 0.366 -0.117 0.751 -0.245 1.125 -0.344 z m 11.688 0 c 0.374 0.099 0.759 0.227 1.125 0.344 c -0.372 -0.118 -0.745 -0.244 -1.125 -0.344 z m -16 1.625 c -0.338 0.167 -0.672 0.349 -1 0.531 c 0.33 -0.184 0.66 -0.363 1 -0.531 z m 20.313 0 c 0.34 0.168 0.67 0.347 1 0.531 c -0.328 -0.182 -0.662 -0.365 -1 -0.531 z m -22.281 1.094 c -0.321 0.2 -0.627 0.41 -0.938 0.625 c 0.309 -0.215 0.618 -0.425 0.938 -0.625 z m -0.938 0.625 c -0.313 0.217 -0.604 0.425 -0.906 0.656 c 0.298 -0.229 0.597 -0.442 0.906 -0.656 z m -0.906 0.656 c -0.597 0.458 -1.17 0.956 -1.719 1.469 c 0.548 -0.513 1.123 -1.01 1.719 -1.469 z m 26.09 -1.281 c 0.32 0.2 0.628 0.41 0.938 0.625 c -0.311 -0.215 -0.616 -0.425 -0.938 -0.625 z m 0.938 0.625 c 0.309 0.215 0.608 0.427 0.906 0.656 c -0.302 -0.232 -0.593 -0.44 -0.906 -0.656 z m 0.906 0.656 c 0.596 0.458 1.171 0.956 1.719 1.469 c -0.549 -0.513 -1.122 -1.01 -1.719 -1.469 z m -30.469 2.25 c -4.02 4.141 -6.5 9.776 -6.5 16 c 0 12.703 10.297 23 23 23 c 12.703 0 23 -10.297 23 -23 c 0 -6.224 -2.484 -11.859 -6.5 -16 l -33 0 z" style="fill:url(#linearGradient3129);fill-opacity:1"/>
 <path d="m 8 15 0 -2 6 0 0 4 -6 0 m 0 -2" style="fill:#000;opacity:0.1;fill-opacity:1;stroke:none;fill-rule:nonzero"/>
 <path d="m 8 21 0 -2 6 0 0 4 -6 0 m 0 -2" style="fill:#000;opacity:0.1;fill-opacity:1;stroke:none;fill-rule:nonzero"/>
 <path d="m 8 27 0 -2 6 0 0 4 -6 0 m 0 -2" style="fill:#000;opacity:0.1;fill-opacity:1;stroke:none;fill-rule:nonzero"/>
 <path d="m 20.438 1.281 c -0.392 0.061 -0.771 0.138 -1.156 0.219 c 0.381 -0.08 0.769 -0.158 1.156 -0.219 z m 7.125 0 c 0.388 0.061 0.775 0.139 1.156 0.219 c -0.385 -0.08 -0.764 -0.158 -1.156 -0.219 z m -14.719 2.625 c -0.327 0.182 -0.652 0.365 -0.969 0.563 c 0.32 -0.2 0.639 -0.378 0.969 -0.563 z m -0.969 0.563 c -0.614 0.382 -1.208 0.783 -1.781 1.219 c 0.574 -0.438 1.166 -0.835 1.781 -1.219 z m 23.281 -0.563 c 0.33 0.184 0.649 0.363 0.969 0.563 c -0.317 -0.197 -0.641 -0.38 -0.969 -0.563 z m 0.969 0.563 c 0.615 0.384 1.207 0.781 1.781 1.219 c -0.573 -0.436 -1.168 -0.837 -1.781 -1.219 z m -26.09 1.281 c -0.601 0.461 -1.167 0.952 -1.719 1.469 c 0.548 -0.513 1.123 -1.01 1.719 -1.469 z m 27.938 0 c 0.596 0.458 1.171 0.956 1.719 1.469 c -0.552 -0.517 -1.118 -1.01 -1.719 -1.469 z m -30.469 2.25 c -0.317 0.327 -0.64 0.655 -0.938 1 l 34.875 0 c -0.297 -0.345 -0.621 -0.673 -0.938 -1 l -33 0 z" style="fill:#000;opacity:0.1;fill-opacity:1;stroke:none;fill-rule:nonzero"/>
 <path d="m 7 14 0 -2 6 0 0 4 -6 0 m 0 -2" style="fill:#fff;fill-opacity:1;stroke:none;fill-rule:nonzero"/>
 <path d="m 7 20 0 -2 6 0 0 4 -6 0 m 0 -2" style="fill:#fff;fill-opacity:1;stroke:none;fill-rule:nonzero"/>
 <path d="m 7 26 0 -2 6 0 0 4 -6 0 m 0 -2" style="fill:#fff;fill-opacity:1;stroke:none;fill-rule:nonzero"/>
 <g>
  <path d="m 40.03 7.531 c 3.712 4.084 5.969 9.514 5.969 15.469 0 12.703 -10.297 23 -23 23 c -5.954 0 -11.384 -2.256 -15.469 -5.969 4.178 4.291 10.01 6.969 16.469 6.969 c 12.703 0 23 -10.298 23 -23 0 -6.462 -2.677 -12.291 -6.969 -16.469 z" style="opacity:0.1"/>
 </g>
 <path d="m 24 1 c -6.479 0 -12.32 2.69 -16.5 7 l 33 0 c -4.18 -4.31 -10.02 -7 -16.5 -7 z" style="fill:#363537;fill-opacity:1;stroke:none;fill-rule:nonzero"/>
</svg>

<svg xmlns="http://www.w3.org/2000/svg" viewBox="0 0 48 48">
  <defs>
    <linearGradient id="a" gradientUnits="userSpaceOnUse" gradientTransform="rotate(-90 24 24)" x1="1" x2="47">
      <stop stop-color="#579ccd"/>
      <stop offset="1" stop-color="#67a6d2"/>
    </linearGradient>
  </defs>
  <path d="M36.31 5c5.859 4.062 9.688 10.831 9.688 18.5 0 12.426-10.07 22.5-22.5 22.5-7.669 0-14.438-3.828-18.5-9.688a23.24 23.24 0 0 0 3.781 4.969 22.923 22.923 0 0 0 15.469 5.969c12.703 0 23-10.298 23-23a22.92 22.92 0 0 0-5.969-15.469A23.216 23.216 0 0 0 36.31 5zm4.969 3.781A22.911 22.911 0 0 1 47.498 24.5c0 12.703-10.297 23-23 23a22.909 22.909 0 0 1-15.719-6.219C12.939 45.425 18.662 48 24.998 48c12.703 0 23-10.298 23-23 0-6.335-2.575-12.06-6.719-16.219z" opacity=".05"/>
  <path d="M41.28 8.781a22.923 22.923 0 0 1 5.969 15.469c0 12.703-10.297 23-23 23A22.92 22.92 0 0 1 8.78 41.281 22.911 22.911 0 0 0 24.499 47.5c12.703 0 23-10.298 23-23A22.909 22.909 0 0 0 41.28 8.781z" opacity=".1"/>
  <path d="M31.25 2.375C39.865 5.529 46 13.792 46 23.505c0 12.426-10.07 22.5-22.5 22.5-9.708 0-17.971-6.135-21.12-14.75a23 23 0 0 0 44.875-7 23 23 0 0 0-16-21.875z" opacity=".2"/>
  <path d="M21.344 1.156zm5.313 0zm-8.5.594c-.38.1-.753.225-1.125.344.366-.117.751-.245 1.125-.344zm11.688 0c.374.099.759.227 1.125.344-.372-.118-.745-.244-1.125-.344zm-16 1.625zm20.313 0zM11.877 4.469zm-.938.625zm-.906.656zm26.09-1.281zm.938.625zm.906.656zM7.498 8c-4.02 4.141-6.5 9.776-6.5 16 0 12.703 10.297 23 23 23s23-10.297 23-23c0-6.224-2.484-11.859-6.5-16h-33z" fill="url(#a)"/>
  <path d="M8 15v-2h6v4H8m0-2M8 21v-2h6v4H8m0-2M8 27v-2h6v4H8m0-2M20.438 1.281zm7.125 0zM12.844 3.906c-.327.182-.652.365-.969.563.32-.2.639-.378.969-.563zm-.969.563zm23.281-.563zm.969.563zM10.035 5.75zm27.938 0zM7.504 8c-.317.327-.64.655-.938 1h34.875c-.297-.345-.621-.673-.938-1h-33z" opacity=".1"/>
  <path d="M7 14v-2h6v4H7m0-2M7 20v-2h6v4H7m0-2M7 26v-2h6v4H7m0-2" fill="#fff"/>
  <g>
    <path d="M40.03 7.531A22.922 22.922 0 0 1 45.999 23c0 12.703-10.297 23-23 23A22.92 22.92 0 0 1 7.53 40.031C11.708 44.322 17.54 47 23.999 47c12.703 0 23-10.298 23-23 0-6.462-2.677-12.291-6.969-16.469z" opacity=".1"/>
  </g>
  <path d="M24 1C17.521 1 11.68 3.69 7.5 8h33C36.32 3.69 30.48 1 24 1z" fill="#363537"/>
</svg>
